X:1
T:O Come, All Ye Faithful
T:O Come, All Ye Faithful
T:Piano Duo Arrangement
T:Traditional
T:Arr. by Dekkadeci
C:Traditional
Z:Arr. by Dekkadeci
%%score { 1 | 2 } { 3 | ( 4 5 ) }
L:1/8
Q:1/4=114
M:4/4
K:Ab
V:1 treble nm="Piano" snm="Pno."
V:2 bass 
V:3 treble nm="Piano" snm="Pno."
V:4 bass 
V:5 bass 
V:1
"^Moderato cantabile"!mp! A2 | A4 E2 A2 | B4 E4 | c2 B2 c2 d2 | c4 B2 A2 | A4 G2 F2 | G2 A2 B2 c2 | %7
 G4 F3 E | E8 | e4 d2 c2 | d4 c4 | B2 c2 A2 B2 | G3 F E2 A2 | A2 G2 A2 B2 | A4 E2 c2 | %15
 c2 B2 c2 d2 | c4 B2 [=Ec]2 |!<(! [Fd]2 [Fc]2 [=EB]2 [FA]2 | [EG]2 [B,=E]2 [CFA]2 [Fd]2 | %19
 [Ec]4 [EB]3 [EA]!<)! |!mf! [EA]8 |!p! [CA]4 [CE]2 [CA]2 | [EB]4 E4 | [Ec]2 [EB]2 [Ec]2 [Fd]2 | %24
 [Ec]4 [EB]2 [FA]2 | [CFA]4 [C=EG]2 [CF]2 | [=EG]2 [FA]2 [EGB]2 [FAc]2 | [EG]4 [=DF]3 E | %28
 E6 !~(!E2 | !~)![EAe]4 [EGd]2 [EAc]2 | [=EGBd]4 [FAc]4 |!<(! [=EGB]2 [FAc]2 [FA]2 [FB]2!<)! | %32
!mp! [EG]3 [=DF] E2!p! [EA]2 | [EA]2 [EG]2 [EA]2 [EGB]2 | [CEA]4 [CE]2!mp! [EAc]2 | %35
 [EAc]2 [EGB]2 [EAc]2 [EGBd]2 | [EAc]4!<(! [EGB]2 [=EGc]2!<)! |!f! [FBd]2 [FAc]2 [=EGB]2 [FA]2 | %38
 [=EG]2 [CE]2 [CFA]2 [DFABd]2 | [EAc]4 [EGB]3 A | [CEA]8 |!f! [EA]4 E2 [EA]2 | [EGB]4 E4 | %43
 [EAc]2 [EGB]2 [EAc]2 [FAd]2 | [EAc]4 [EGB]2 [FA]2 | [FA]4 [=EG]2 F2 | [=EG]2 [FA]2 [EGB]2 [FAc]2 | %47
 [EG]4 [=DF]3 E | E8 | [Ace]4 [EGBd]2 [EAc]2 | [=EGBd]4 [FAc]4 | [=EGB]2 [FAc]2 [FA]2 [=DFB]2 | %52
 [EG]3 [=DF] E2 [EA]2 | [EA]2 [EG]2 [EA]2 [EGB]2 | [EA]4 E2 [EAc]2 | [EAc]2 [EGB]2 [EAc]2 [EGBd]2 | %56
 [EAc]4 [EGB]2 [=EGBc]2 |"_rit."!<(! [FBd]2[Q:1/4=108] [FAc]2 [=EGB]2 [FA]2 | %58
[Q:1/4=96] [=EG]2 E2 [FA]2[Q:1/4=86] [FABd]2 | [EAc]4[Q:1/4=70] [EGB]3 A!<)! | %60
[Q:1/4=30]!ff! !fermata![CEA]8[Q:1/4=48][Q:1/4=66][Q:1/4=84][Q:1/4=102][Q:1/4=120][Q:1/4=70] |] %61
V:2
 z2 | z8 | z8 | z8 | z8 | z8 | z8 | z8 | z8 | z8 | z8 | z8 | z8 | z8 | z8 | z8 | z8 | z8 | z8 | %19
 z8 | z8 | A,4 A,4 | G,4 [E,G,B,]4 | A,2 G,2 A,2 F,2 | E,4 E,2 F,2 | F,4 =E,2 [F,A,]2 | %26
 [=E,B,]2 [F,C]2 [E,D]2 [F,C]2 | B,4 B,4 | [E,G,B,]8 | [A,C]4 [G,B,]2 [A,C]2 | [G,B,]4 [A,C]4 | %31
 [G,B,D]2 [F,A,C]2 [F,A,C]2 [F,B,=D]2 | [B,,B,]4 [E,G,B,]2 [A,C]2 | [A,C]2 [G,B,]2 [A,C]2 [G,B,]2 | %34
 A,6 [A,C]2 | [A,C]2 [G,B,]2 [A,C]2 [G,B,]2 | [A,C]4 [G,B,]2 [G,B,]2 | %37
 [F,B,]2 [F,A,C]2 [=E,G,D]2 [F,A,C]2 | [=E,G,C]2 [C,E,G,]2 [F,A,]2 [D,F,A,B,]2 | [E,A,]4 [E,G,]4 | %40
 [A,,A,]8 | [A,C]4 [A,C]4 | [G,B,]4 [E,G,B,]4 | [A,C]2 [G,B,]2 [A,C]2 [F,A,D]2 | %44
 [E,A,C]4 [E,G,B,]2 [F,A,C]2 | [F,A,C]4 [=E,G,C]2 [F,A,C]2 | %46
 [=E,G,B,D]2 [F,A,C]2 [E,G,B,D]2 [F,A,C]2 | [G,B,]4 [F,B,]4 | [E,G,B,]8 | %49
 [A,C]2 E2 [G,B,D]2 [A,C]2 | [G,B,D]D/D/ CB, [F,A,C]2 A,2 | %51
 [=E,G,B,D]2 [F,A,C]2 [A,C]2 [=D,F,B,]2 | [E,G,B,]3 [=D,F,B,] [E,G,B,]2 [E,A,C]2 | %53
 [A,C]2 [G,B,]2 [A,C]2 [G,B,]2 | [A,C]4 [A,C]4 | [A,C]2 [G,B,]2 [A,C]2 [G,B,D]2 | %56
 [A,C]CB,A, [G,B,]2 [G,B,C]2 | [F,B,D]2 [F,A,C]2 [=E,G,B,D]2 [F,A,C]2 | %58
 [C,=E,G,C]2 [E,G,C]2 [F,A,C]2 [F,A,B,D]2 | [E,A,C]4 [E,G,B,]4 | !fermata![A,,A,]8 |] %61
V:3
!mp! z2 | z8 | z8 | z8 | z8 | z8 | z8 | [EG]4 [=DF]4 | E8 | z8 | z8 | z8 | z8 | z8 | z8 | z8 | z8 | %17
!<(! z8 | z8 | z8!<)! |!mf! z8 |!p! z8 | z8 | z8 | z8 | z8 | z8 | z8 | z8 | z8 | z8 |!<(! z8!<)! | %32
!mp! z8 | z8 | z8 | z8 | z8 | %37
[K:bass]!f! F,/E,/D,/C,/ B,,/A,,/G,,/F,,/ =E,,/F,,/G,,/A,,/ B,,/A,,/G,,/F,,/ | %38
 =E,,/F,,/G,,/A,,/ B,,/C,/=D,/=E,/ F,/C,/A,,/F,,/ A,,/B,,/_D,/F,/ | %39
 E,/C,/A,,/E,,/ A,,/B,,/C,/D,/ E,/B,,/G,,/E,,/ G,,/A,,/B,,/C,/ | %40
 A,,/C,/E,/A,/ C/A,/E,/C,/ A,,[A,,C,]/[A,,C,]/ [A,,C,][A,,C,] | %41
!f! [A,,C,][A,,C,E,]/[A,,C,E,]/ [A,,C,E,][A,,C,E,] A,,[A,,C,]/[A,,C,]/ [A,,C,E,][A,,C,E,] | %42
 G,,[G,,B,,E,]/[G,,B,,E,]/ [G,,B,,E,][G,,B,,E,G,]/[G,,B,,E,G,]/ [G,,B,,E,G,][G,,B,,E,]/[G,,B,,E,]/ [G,,B,,E,][G,,B,,E,] | %43
 A,,[A,,C,]/[A,,C,]/ [G,,B,,E,][G,,B,,E,] A,,[A,,C,]/[A,,C,]/ [A,,D,][A,,D,F,] | %44
 [E,,A,,C,E,][E,,A,,C,]/[E,,A,,C,]/ [E,,A,,]E,, [E,,G,,B,,E,][E,,G,,B,,]/[E,,G,,B,,]/ [F,,A,,]F,, | %45
 A,,[A,,C,]/[A,,C,]/ [A,,C,][A,,C,F,] G,,[G,,C,]/[G,,C,]/ [A,,C,][A,,C,F,] | %46
 [G,,B,,D,][G,,B,,D,]/[G,,B,,D,]/ [F,,A,,C,][F,,A,,] [G,,B,,][G,,B,,]/[G,,B,,]/ [F,,A,,]F,, | %47
 G,,[G,,B,,]/[G,,B,,]/ [G,,B,,][G,,B,,E,] F,,[F,,B,,]/[F,,B,,]/ [F,,B,,][F,,B,,=D,] | %48
 E,,[E,,G,,B,,]/[E,,G,,B,,]/ [E,,G,,B,,][G,,B,,E,]/[G,,B,,E,]/ [G,,B,,E,][G,,B,,E,G,]/[G,,B,,E,G,]/ [G,,B,,E,G,][B,,E,G,B,] | %49
 [A,,C,E,A,][A,,C,]/[A,,C,]/ [A,,C,][A,,C,] [G,,B,,D,][G,,B,,D,]/[G,,B,,D,]/ [A,,C,E,][A,,C,E,] | %50
 [G,,B,,=E,][G,,B,,D,]/[G,,B,,D,]/ [G,,C,][G,,B,,] [F,,A,,C,F,][F,,A,,C,]/[F,,A,,C,]/ [F,,A,,]F,, | %51
 G,,[G,,B,,D,]/[G,,B,,D,]/ [A,,C,]A,, F,,[F,,A,,C,]/[F,,A,,C,]/ [F,,B,,=D,][F,,B,,] | %52
 [E,,G,,B,,E,][E,,G,,B,,]/[E,,G,,B,,]/ [E,,G,,]F,, E,,[E,,G,,B,,]/[E,,G,,B,,]/ [E,,A,,C,E,][E,,A,,C,E,] | %53
 A,,[A,,C,]/[A,,C,]/ [G,,B,,D,][G,,B,,E,] [A,,C,][A,,C,E,]/[A,,C,E,]/ [G,,B,,E,G,][G,,B,,E,] | %54
 [A,,C,E,A,][A,,C,E,]/[A,,C,E,]/ [A,,C,]A,, E,,[E,,A,,]/[E,,A,,]/ [E,,A,,C,][E,,A,,] | %55
 A,,[A,,C,]/[A,,C,]/ [G,,B,,D,][G,,B,,E,] [A,,C,][A,,C,E,]/[A,,C,E,]/ [G,,B,,E,G,][G,,B,,E,] | %56
 [A,,C,E,A,][A,,C,E,]/[A,,C,E,]/ [A,,C,]A,, E,,[E,,G,,]/[E,,G,,]/ [=E,,G,,B,,][E,,G,,C,] | %57
"_rit."!<(! [F,,B,,D,][F,,B,,D,F,]/[F,,B,,D,F,]/ [F,,A,,C,][F,,B,,] [=E,,G,,]E,,/E,,/ F,,[F,,A,,C,] | %58
 [G,,C,][G,,=D,]/[G,,D,]/ [G,,C,=E,][G,,C,] [F,,A,,C,F,][F,,A,,C,_E,]/[F,,A,,C,E,]/ [F,,B,,_D,][F,,B,,] | %59
 [A,,C,E,][A,,D,]/[A,,D,]/ [A,,C,]A,, [G,,B,,][G,,C,]/[G,,C,]/ [G,,B,,D,][G,,B,,E,]!<)! | %60
!ff! A,,/4A,/4A,,/4A,/4A,,/4A,/4A,,/4A,/4A,,/4A,/4A,,/4A,/4A,,/4A,/4A,,/4A,/4A,,/4A,/4A,,/4A,/4A,,/4A,/4A,,/4A,/4 !^![A,,C,E,A,]2 |] %61
V:4
 z2 | [A,CE]8 | [G,B,E]8 | [A,CE]2 [G,B,E]2 [A,CE]2 [F,A,D]2 | [E,A,C]4 [E,G,B,]2 [F,A,]2 | %5
 [F,A,C]4 [=E,G,C]2 [F,A,C]2 | [=E,G,B,D]2 [F,A,C]2 [D,E,G,B,]2 [F,A,C]2 | [B,,B,]4 [B,,B,]4 | %8
 [E,G,B,]8 | [A,CE]4 [G,B,DE]2 [A,CE]2 | [=E,G,B,D]4 [F,A,C]4 | %11
 [=E,G,B,D]2 [F,A,C]2 [A,CF]2 [F,B,=D]2 | [E,G,B,E]3 [=D,F,B,] [E,G,B,]2 [A,CE]2 | %13
 [A,CE]2 [G,B,E]2 [A,CE]2 [G,B,E]2 | [A,CE]4 [A,CE]2 [A,CE]2 | [A,CE]2 [G,B,E]2 [A,CE]2 [G,B,DE]2 | %16
 [A,CE]4 [G,B,E]2 [=E,G,B,C]2 | [F,B,D]2 [F,A,C]2 [=E,G,B,D]2 [F,A,C]2 | [G,B,]4 [A,C]2 [A,B,D]2 | %19
 [E,A,C]4 [E,G,B,]3 [A,C] | [A,C]8 | A,,/C,/E,/A,/ C/A,/E,/C,/ A,,/C,/E,/A,/ C/A,/E,/C,/ | %22
 G,,/B,,/E,/G,/ B,/G,/E,/B,,/ E,,/G,,/B,,/E,/ G,/E,/D,/B,,/ | %23
 A,,/C,/E,/A,/ G,,/B,,/E,/G,/ A,,/C,/E,/A,/ A,,/D,/F,/A,/ | %24
 E,,/A,,/C,/E,/ A,/E,/C,/A,,/ E,,/G,,/B,,/E,/ A,/F,/C,/A,,/ | %25
 F,,/A,,/C,/F,/ A,/F,/C,/A,,/ =E,,/G,,/C,/=E,/ F,,/A,,/C,/F,/ | %26
 =E,,/G,,/B,,/=E,/ F,,/A,,/C,/F,/ E,,/G,,/D,/G,/ A,/F,/C,/A,,/ | %27
 B,,/E,/G,/B,/ G,/E,/B,,/G,,/ B,,/=D,/F,/A,/ F,/D,/B,,/D,/ | %28
 E,,/G,,/B,,/E,/ G,/E,/B,,/G,,/ E,,/G,,/B,,/E,/ G,/E,/G,/B,/ | %29
 A,,/C,/E,/A,/ C/A,/E,/C,/ G,,/B,,/D,/E,/ A,,/C,/E,/A,/ | %30
 G,,/B,,/=E,/G,/ E,/D,/B,,/G,,/ A,,/C,/F,/A,/ F,/C,/A,,/F,,/ | %31
 =E,,/G,,/B,,/=E,/ F,/C,/A,,/F,,/ A,,/C,/F,/A,/ F,/=D,/B,,/F,,/ | %32
 G,,/B,,/E,/G,/ B,/G,/=D,/B,,/ E,,/G,,/B,,/E,/!p! C,/A,,/E,,/A,,/ | %33
 A,,/C,/E,/A,/ G,,/B,,/E,/G,/ A,,/C,/E,/A,/ B,,/E,/G,/B,/ | %34
 A,,/C,/E,/A,/ C/A,/E,/C,/ E,,/A,,/C,/E,/ A,/E,/C,/A,,/ | %35
 A,,/C,/E,/A,/ G,,/B,,/E,/G,/ A,,/C,/E,/A,/ B,,/E,/G,/B,/ | %36
 A,,/C,/E,/A,/ C/A,/E,/C,/!<(! G,,/B,,/E,/G,/ =E,/C,/G,,/C,/!<)! | %37
 F,,/E,,/D,,/C,,/!8vb(! B,,,/A,,,/G,,,/F,,,/ =E,,,/F,,,/G,,,/A,,,/ B,,,/A,,,/G,,,/F,,,/ | %38
 =E,,,/F,,,/G,,,/A,,,/ B,,,/C,,/=D,,/=E,,/ F,,/C,,/A,,,/F,,,/ A,,,/B,,,/_D,,/F,,/ | %39
 E,,/C,,/A,,,/E,,,/ A,,,/B,,,/C,,/D,,/ E,,/B,,,/G,,,/E,,,/ G,,,/A,,,/B,,,/C,,/ | %40
 A,,,/C,,/E,,/A,,/ C,/A,,/E,,/C,,/ A,,, z [A,,,E,,] z | [A,,,E,,] z A,,, z [A,,,E,,] z A,,, z | %42
 [G,,,E,,] z E,,, z [E,,,E,,] z E,,, z | [A,,,E,,] z E,,, z [A,,,E,,] z D,,, z | %44
 [E,,,E,,] z E,,, z [E,,,E,,] z F,,, z | [A,,,F,,] z A,,, z [C,,=E,,] z F,,, z | %46
 [=E,,,D,,] z F,,, z [G,,,=E,,] z F,,, z | [B,,,E,,] z B,,, z [B,,,=D,,] z B,,, z | %48
 [E,,,B,,,] z E,,, z [B,,,E,,] z E,,, z | [A,,,E,,] z A,,, z [G,,,E,,] z A,,, z | %50
 [=E,,,D,,] z E,,, z [F,,,C,,] z F,,, z | [=E,,,D,,] z F,,, z [F,,,C,,] z B,,, z | %52
 [E,,,B,,,] z E,,, z [E,,,B,,,] z E,,, z | [A,,,E,,] z G,,, z [A,,,E,,] z E,,, z | %54
 [A,,,E,,] z A,,, z [A,,,C,,] z A,,, z | [A,,,E,,] z E,,, z [A,,,E,,] z E,,, z | %56
 [A,,,E,,] z A,,, z [E,,,B,,,] z C,, z | [F,,,D,,] z F,,, z [=E,,,D,,] z F,,, z | %58
 [C,,=E,,] z C,, z [F,,,C,,] z B,,, z | [E,,,E,,] z E,,, z [E,,,E,,] z E,,, z | %60
 !fermata![A,,,E,,]8!8vb)! |] %61
V:5
 x2 | x8 | x8 | x8 | x8 | x8 | x8 | x8 | x8 | x8 | x8 | x8 | x8 | x8 | x8 | x8 | x8 | x8 | %18
 E,2 =E,2 F,2 F,2 | x8 | x8 | x8 | x8 | x8 | x8 | x8 | x8 | x8 | x8 | x8 | x8 | x8 | x8 | x8 | x8 | %35
 x8 | x8 | x2!8vb(! x6 | x8 | x8 | x8 | x8 | x8 | x8 | x8 | x8 | x8 | x8 | x8 | x8 | x8 | x8 | x8 | %53
 x8 | x8 | x8 | x8 | x8 | x8 | x8 | x8!8vb)! |] %61

